svg/fluentui-system-icons/ic_fluent_dismiss_12_regular.svg

<svg width="12" height="12" viewBox="0 0 12 12" fill="none" xmlns="http://www.w3.org/2000/svg">
<path d="M2.08859 2.21569L2.14645 2.14645C2.32001 1.97288 2.58944 1.9536 2.78431 2.08859L2.85355 2.14645L6 5.293L9.14645 2.14645C9.34171 1.95118 9.65829 1.95118 9.85355 2.14645C10.0488 2.34171 10.0488 2.65829 9.85355 2.85355L6.707 6L9.85355 9.14645C10.0271 9.32001 10.0464 9.58944 9.91141 9.78431L9.85355 9.85355C9.67999 10.0271 9.41056 10.0464 9.21569 9.91141L9.14645 9.85355L6 6.707L2.85355 9.85355C2.65829 10.0488 2.34171 10.0488 2.14645 9.85355C1.95118 9.65829 1.95118 9.34171 2.14645 9.14645L5.293 6L2.14645 2.85355C1.97288 2.67999 1.9536 2.41056 2.08859 2.21569L2.14645 2.14645L2.08859 2.21569Z" fill="#212121"/>
</svg>

<svg xmlns="http://www.w3.org/2000/svg" width="12" height="12"><path d="m2.089 2.216.057-.07a.5.5 0 0 1 .638-.057l.07.057L6 5.293l3.146-3.147a.5.5 0 1 1 .708.708L6.707 6l3.147 3.146a.5.5 0 0 1 .057.638l-.057.07a.5.5 0 0 1-.638.057l-.07-.057L6 6.707 2.854 9.854a.5.5 0 0 1-.708-.708L5.293 6 2.146 2.854a.5.5 0 0 1-.057-.638l.057-.07-.057.07Z"/></svg>
